icons/cloudy-snow.svg

<svg width="24" height="24" viewBox="0 0 24 24" fill="none" xmlns="http://www.w3.org/2000/svg">
<path fill-rule="evenodd" clip-rule="evenodd" d="M13.1449 6.09161C12.4733 5.97131 11.7808 5.96947 11.1084 6.08622C10.4359 6.20298 9.80103 6.43526 9.23946 6.76583C8.10447 7.43396 7.35179 8.45136 7.09763 9.56696C6.99395 10.022 6.58931 10.3448 6.12261 10.3448C5.01072 10.3448 3.95543 10.7616 3.18622 11.4865C2.41902 12.2096 2 13.1771 2 14.1724C2 15.1678 2.41902 16.1353 3.18622 16.8583C3.95543 17.5832 5.01072 18 6.12261 18H7C7.55228 18 8 18.4477 8 19C8 19.5523 7.55228 20 7 20H6.12261C4.5173 20 2.96668 19.3996 1.81454 18.3138C0.660383 17.2261 0 15.7378 0 14.1724C0 12.6071 0.660383 11.1187 1.81454 10.031C2.78417 9.11725 4.03604 8.54723 5.36521 8.38957C5.87515 7.0047 6.8898 5.8282 8.22487 5.04229C9.0002 4.58588 9.86392 4.27237 10.7663 4.1157C11.6686 3.95904 12.5962 3.96149 13.4975 4.12295C14.3989 4.28441 15.2606 4.60253 16.0331 5.06317C16.8057 5.52387 17.4764 6.11979 18.002 6.8219C18.528 7.5244 18.8977 8.31882 19.0837 9.16095C19.1806 9.59971 19.2262 10.0453 19.2206 10.4905C20.4805 10.4987 21.6898 10.9952 22.5856 11.8778C23.4895 12.7683 24 13.9793 24 15.2452C24 16.5111 23.4895 17.7221 22.5856 18.6126C21.6823 19.5026 20.4602 20 19.189 20H19C18.4477 20 18 19.5523 18 19C18 18.4477 18.4477 18 19 18H19.189C19.9393 18 20.6559 17.7062 21.1819 17.1879C21.7075 16.6701 22 15.971 22 15.2452C22 14.5194 21.7075 13.8203 21.1819 13.3025C20.6559 12.7842 19.9393 12.4904 19.189 12.4904H18.1001C17.7959 12.4904 17.5082 12.3519 17.3184 12.1141C17.1287 11.8762 17.0575 11.5649 17.1251 11.2683C17.2512 10.7149 17.2531 10.1461 17.1308 9.59221C17.0084 9.03795 16.7626 8.50351 16.401 8.02055C16.0392 7.5372 15.5677 7.11428 15.0087 6.78093C14.4496 6.4475 13.8164 6.21191 13.1449 6.09161ZM11 14C11.5523 14 12 14.4477 12 15V15.01C12 15.5623 11.5523 16.01 11 16.01C10.4477 16.01 10 15.5623 10 15.01V15C10 14.4477 10.4477 14 11 14ZM15 16.03C15.5523 16.03 16 16.4777 16 17.03V17.04C16 17.5923 15.5523 18.04 15 18.04C14.4477 18.04 14 17.5923 14 17.04V17.03C14 16.4777 14.4477 16.03 15 16.03ZM11 17.01C11.5523 17.01 12 17.4577 12 18.01V18.02C12 18.5723 11.5523 19.02 11 19.02C10.4477 19.02 10 18.5723 10 18.02V18.01C10 17.4577 10.4477 17.01 11 17.01ZM15 19.04C15.5523 19.04 16 19.4877 16 20.04V20.05C16 20.6023 15.5523 21.05 15 21.05C14.4477 21.05 14 20.6023 14 20.05V20.04C14 19.4877 14.4477 19.04 15 19.04ZM11 20.02C11.5523 20.02 12 20.4677 12 21.02V21.03C12 21.5823 11.5523 22.03 11 22.03C10.4477 22.03 10 21.5823 10 21.03V21.02C10 20.4677 10.4477 20.02 11 20.02Z" fill="black"/>
</svg>

<svg
  width="24"
  height="24"
  viewBox="0 0 24 24"
  xmlns="http://www.w3.org/2000/svg"
>
  <path
    fill-rule="evenodd"
    clip-rule="evenodd"
    d="M13.145 6.092a5.876 5.876 0 0 0-2.037-.006 5.563 5.563 0 0 0-1.869.68c-1.135.668-1.887 1.685-2.141 2.801a1 1 0 0 1-.975.778 4.286 4.286 0 0 0-2.937 1.141C2.42 12.21 2 13.178 2 14.172c0 .996.419 1.963 1.186 2.686A4.286 4.286 0 0 0 6.123 18H7a1 1 0 1 1 0 2h-.877c-1.606 0-3.156-.6-4.308-1.686C.66 17.226 0 15.738 0 14.172c0-1.565.66-3.053 1.815-4.141a6.25 6.25 0 0 1 3.55-1.641c.51-1.385 1.525-2.562 2.86-3.348a7.563 7.563 0 0 1 2.541-.926 7.876 7.876 0 0 1 2.732.007c.9.161 1.763.48 2.535.94a6.806 6.806 0 0 1 1.969 1.759 6.097 6.097 0 0 1 1.082 2.339c.097.439.142.884.137 1.33a4.84 4.84 0 0 1 3.365 1.387A4.727 4.727 0 0 1 24 15.245c0 1.266-.51 2.477-1.414 3.368A4.84 4.84 0 0 1 19.189 20H19a1 1 0 1 1 0-2h.189a2.84 2.84 0 0 0 1.993-.812A2.727 2.727 0 0 0 22 15.245c0-.726-.293-1.425-.818-1.942a2.84 2.84 0 0 0-1.993-.813H18.1a1 1 0 0 1-.975-1.222 3.816 3.816 0 0 0 .006-1.676 4.098 4.098 0 0 0-.73-1.571 4.808 4.808 0 0 0-1.392-1.24 5.554 5.554 0 0 0-1.864-.69zM11 14a1 1 0 0 1 1 1v.01a1 1 0 1 1-2 0V15a1 1 0 0 1 1-1zm4 2.03a1 1 0 0 1 1 1v.01a1 1 0 1 1-2 0v-.01a1 1 0 0 1 1-1zm-4 .98a1 1 0 0 1 1 1v.01a1 1 0 1 1-2 0v-.01a1 1 0 0 1 1-1zm4 2.03a1 1 0 0 1 1 1v.01a1 1 0 1 1-2 0v-.01a1 1 0 0 1 1-1zm-4 .98a1 1 0 0 1 1 1v.01a1 1 0 1 1-2 0v-.01a1 1 0 0 1 1-1z"
  />
</svg>
